X: 1
T:Old Hag at the Churn
M:6/8
L:1/8
Q:80
C:arr. Kent Hiestand
S:Jig
K:HP
{gef}e2d{g}e{AGAG}A2|
{gef}e2d{g}eag|
{ef}e2d{g}e{AGAG}A2|  !
{g}Bcd{g}Bcd:|
{g}eaf{gf}g3|
{g}ea{g}afga|  !
{g}eaf{gf}g3|
{g}BAB{g}dB{G}A|
{g}eaf{gf}g3|  !
{g}ea{g}afga|
eaf{g}edB|
{g}dBc{g}dB{G}A|]  !
